src/symbols/alphanum/1F17E.svg

<svg id="emoji" viewBox="0 0 72 72" xmlns="http://www.w3.org/2000/svg">
  <g id="grid">
    <path fill="#b3b3b3" d="M68,4V68H4V4H68m4-4H0V72H72V0Z"/>
    <path fill="none" stroke="#00a5ff" stroke-miterlimit="10" stroke-width="0.1" d="M12.923,11H59.0769A1.9231,1.9231,0,0,1,61,12.9231V59.0769A1.9231,1.9231,0,0,1,59.0769,61H12.9231A1.9231,1.9231,0,0,1,11,59.0769V12.923A1.923,1.923,0,0,1,12.923,11Z"/>
    <rect x="16" y="4" rx="2.2537" width="40" height="64" fill="none" stroke="#00a5ff" stroke-miterlimit="10" stroke-width="0.1"/>
    <rect x="16" y="4" rx="2.2537" width="40" height="64" transform="translate(72) rotate(90)" fill="none" stroke="#00a5ff" stroke-miterlimit="10" stroke-width="0.1"/>
    <circle cx="36" cy="36" r="29" fill="none" stroke="#00a5ff" stroke-miterlimit="10" stroke-width="0.1"/>
  </g>
  <g id="line-supplement">
    <g id="O_Button">
      <path fill="none" stroke="#000" stroke-miterlimit="10" stroke-width="2" d="M59.0349,60h-46.07A.9679.9679,0,0,1,12,59.0349v-46.07A.9679.9679,0,0,1,12.9651,12h46.07A.9679.9679,0,0,1,60,12.9651v46.07A.9679.9679,0,0,1,59.0349,60Z"/>
      <path fill="none" stroke="#000" stroke-linecap="round" stroke-linejoin="round" stroke-width="2" d="M35.75,46.5116h0a7.8572,7.8572,0,0,1-7.8571-7.8571V32.3687A7.8572,7.8572,0,0,1,35.75,24.5116h0a7.8572,7.8572,0,0,1,7.8571,7.8571v6.2858A7.8572,7.8572,0,0,1,35.75,46.5116Z"/>
    </g>
  </g>
  <g id="color">
    <g id="color-2">
      <path fill="#d22f27" d="M59.0349,60h-46.07A.9679.9679,0,0,1,12,59.0349v-46.07A.9679.9679,0,0,1,12.9651,12h46.07A.9679.9679,0,0,1,60,12.9651v46.07A.9679.9679,0,0,1,59.0349,60Z"/>
    </g>
  </g>
  <g id="line"/>
  <g id="color-foreground">
    <g id="O_Button-2">
      <path fill="none" stroke="#fff" stroke-miterlimit="10" stroke-width="2" d="M59.0349,60h-46.07A.9679.9679,0,0,1,12,59.0349v-46.07A.9679.9679,0,0,1,12.9651,12h46.07A.9679.9679,0,0,1,60,12.9651v46.07A.9679.9679,0,0,1,59.0349,60Z"/>
      <path fill="none" stroke="#fff" stroke-linecap="round" stroke-linejoin="round" stroke-width="2" d="M35.75,46.5116h0a7.8572,7.8572,0,0,1-7.8571-7.8571V32.3687A7.8572,7.8572,0,0,1,35.75,24.5116h0a7.8572,7.8572,0,0,1,7.8571,7.8571v6.2858A7.8572,7.8572,0,0,1,35.75,46.5116Z"/>
    </g>
  </g>
</svg>

<svg id="emoji" version="1.1" viewBox="0 0 72 72" xmlns="http://www.w3.org/2000/svg">
 <g id="grid">
  <path d="M68,4V68H4V4H68m4-4H0V72H72V0Z" fill="#b3b3b3"/>
  <path d="m12.92 11h46.15a1.923 1.923 0 0 1 1.923 1.923v46.15a1.923 1.923 0 0 1-1.923 1.923h-46.15a1.923 1.923 0 0 1-1.923-1.923v-46.15a1.923 1.923 0 0 1 1.923-1.923z" fill="none" stroke="#00a5ff" stroke-miterlimit="10" stroke-width=".1"/>
  <rect x="16" y="4" width="40" height="64" rx="2.254" fill="none" stroke="#00a5ff" stroke-miterlimit="10" stroke-width=".1"/>
  <rect transform="translate(72) rotate(90)" x="16" y="4" width="40" height="64" rx="2.254" fill="none" stroke="#00a5ff" stroke-miterlimit="10" stroke-width=".1"/>
  <circle cx="36" cy="36" r="29" fill="none" stroke="#00a5ff" stroke-miterlimit="10" stroke-width=".1"/>
 </g>
 <g id="color">
  <rect x="12" y="12" width="48" height="47.83" fill="#d22f27"/>
  <path d="m36.03 47.9c-4.643 0-8.411-3.765-8.411-8.411v-6.729c0-4.646 3.768-8.411 8.411-8.411 4.646 0 8.411 3.765 8.411 8.411v6.729c0 4.646-3.765 8.411-8.411 8.411z" clip-rule="evenodd" fill="none" stroke="#fff" stroke-linecap="round" stroke-linejoin="round" stroke-miterlimit="10" stroke-width="6.729px"/>
 </g>
 <g id="line">
  <rect x="12" y="12" width="48" height="48" fill="none" stroke="#000" stroke-linecap="round" stroke-linejoin="round" stroke-width="2"/>
 </g>
</svg>
